vendor/shopware/storefront/Resources/app/storefront/dist/assets/icon/default/server.svg

<svg xmlns="http://www.w3.org/2000/svg" width="24" height="24" viewBox="0 0 24 24">
  <path fill="#758CA3" fill-rule="evenodd" d="M2.3541756,15 C1.52375489,14.2670555 1,13.1946925 1,12 C1,10.8053075 1.52375489,9.73294445 2.3541756,9 C1.52375489,8.26705555 1,7.19469253 1,6 C1,3.790861 2.790861,2 5,2 L19,2 C21.209139,2 23,3.790861 23,6 C23,7.19469253 22.4762451,8.26705555 21.6458244,9 C22.4762451,9.73294445 23,10.8053075 23,12 C23,13.1946925 22.4762451,14.2670555 21.6458244,15 C22.4762451,15.7329445 23,16.8053075 23,18 C23,20.209139 21.209139,22 19,22 L5,22 C2.790861,22 1,20.209139 1,18 C1,16.8053075 1.52375489,15.7329445 2.3541756,15 Z M19,14 C20.1045695,14 21,13.1045695 21,12 C21,10.8954305 20.1045695,10 19,10 L5,10 C3.8954305,10 3,10.8954305 3,12 C3,13.1045695 3.8954305,14 5,14 L19,14 Z M19,8 C20.1045695,8 21,7.1045695 21,6 C21,4.8954305 20.1045695,4 19,4 L5,4 C3.8954305,4 3,4.8954305 3,6 C3,7.1045695 3.8954305,8 5,8 L19,8 Z M5,5 C5.55228475,5 6,5.44771525 6,6 C6,6.55228475 5.55228475,7 5,7 C4.44771525,7 4,6.55228475 4,6 C4,5.44771525 4.44771525,5 5,5 Z M5,11 C5.55228475,11 6,11.4477153 6,12 C6,12.5522847 5.55228475,13 5,13 C4.44771525,13 4,12.5522847 4,12 C4,11.4477153 4.44771525,11 5,11 Z M5,16 C3.8954305,16 3,16.8954305 3,18 C3,19.1045695 3.8954305,20 5,20 L19,20 C20.1045695,20 21,19.1045695 21,18 C21,16.8954305 20.1045695,16 19,16 L5,16 Z M5,17 C5.55228475,17 6,17.4477153 6,18 C6,18.5522847 5.55228475,19 5,19 C4.44771525,19 4,18.5522847 4,18 C4,17.4477153 4.44771525,17 5,17 Z"/>
</svg>

<svg xmlns="http://www.w3.org/2000/svg" width="24" height="24" viewBox="0 0 24 24"><path fill="#758CA3" fill-rule="evenodd" d="M2.3542 15C1.5238 14.267 1 13.1947 1 12s.5238-2.267 1.3542-3C1.5238 8.267 1 7.1947 1 6c0-2.2091 1.7909-4 4-4h14c2.2091 0 4 1.7909 4 4 0 1.1947-.5238 2.267-1.3542 3C22.4762 9.733 23 10.8053 23 12s-.5238 2.267-1.3542 3C22.4762 15.733 23 16.8053 23 18c0 2.2091-1.7909 4-4 4H5c-2.2091 0-4-1.7909-4-4 0-1.1947.5238-2.267 1.3542-3zM19 14c1.1046 0 2-.8954 2-2s-.8954-2-2-2H5c-1.1046 0-2 .8954-2 2s.8954 2 2 2h14zm0-6c1.1046 0 2-.8954 2-2s-.8954-2-2-2H5c-1.1046 0-2 .8954-2 2s.8954 2 2 2h14zM5 5c.5523 0 1 .4477 1 1s-.4477 1-1 1-1-.4477-1-1 .4477-1 1-1zm0 6c.5523 0 1 .4477 1 1s-.4477 1-1 1-1-.4477-1-1 .4477-1 1-1zm0 5c-1.1046 0-2 .8954-2 2s.8954 2 2 2h14c1.1046 0 2-.8954 2-2s-.8954-2-2-2H5zm0 1c.5523 0 1 .4477 1 1s-.4477 1-1 1-1-.4477-1-1 .4477-1 1-1z"/></svg>
